app/assets/images/payment_icons/sofort.svg

<svg xmlns="http://www.w3.org/2000/svg" width="38" height="24" fill="none" aria-labelledby="pi-sofort" role="img" viewBox="0 0 38 24"><title id="pi-sofort">SOFORT</title><path fill="#fff" d="M0 0h38v24H0z"/><path fill="#393A41" d="M33.555 20H3L5.322 5H36z"/><path fill="#EDEDED" d="M13.116 10c-1.403 0-2.47 1.243-2.47 2.725 0 1.34.875 2.274 2.066 2.274 1.403 0 2.462-1.278 2.462-2.76.008-1.349-.867-2.239-2.058-2.239m-.315 3.738c-.538 0-.912-.423-.912-1.076 0-.723.463-1.41 1.132-1.41.536 0 .911.441.911 1.094.008.731-.462 1.392-1.132 1.392zM21.56 10c-1.402 0-2.461 1.243-2.461 2.725 0 1.34.875 2.274 2.066 2.274 1.403 0 2.463-1.278 2.463-2.76C23.636 10.89 22.76 10 21.562 10zm-.307 3.738c-.537 0-.912-.423-.912-1.076 0-.723.463-1.41 1.133-1.41.535 0 .911.441.911 1.094 0 .731-.463 1.392-1.133 1.392zm6.506-2.16c0-.9-.581-1.472-1.64-1.472h-1.485l-.654 4.787h1.25l.206-1.508h.059l.66 1.508h1.434l-.918-1.676c.684-.282 1.087-.89 1.087-1.638zm-2 .795h-.183l.139-1.007h.169c.39 0 .595.142.595.45 0 .363-.293.557-.72.557m-16.547-.354c-.477-.292-.581-.362-.581-.521 0-.193.19-.29.448-.29.302 0 .758.043 1.206.554.108-.4.287-.777.529-1.11-.63-.431-1.22-.652-1.756-.652-1.066 0-1.683.687-1.683 1.516 0 .715.447 1.085.977 1.412.478.29.595.387.595.564 0 .194-.198.3-.463.3-.456 0-.986-.344-1.301-.697L7 14.426c.417.378.954.582 1.507.574 1.103 0 1.699-.671 1.699-1.527 0-.705-.382-1.084-.993-1.454zm9.263.184h-1.47l.117-.837h1.572c.2-.491.513-.923.912-1.26h-2.573c-.573 0-1.058.467-1.14 1.102l-.499 3.694h1.25l.206-1.508h1.485l.11-.82a5 5 0 0 1 .03-.37zm9.312-2.096c.338.308.544.74.588 1.26h1.044l-.477 3.526h1.249l.477-3.527h1.162l.169-1.26z"/></svg>

<svg xmlns="http://www.w3.org/2000/svg" width="38" height="24" viewBox="0 0 38 24" fill="none" aria-labelledby="pi-sofort" role="img"><title id="pi-sofort">SOFORT</title><rect width="38" height="24" fill="white"/><path d="M33.555 20H3L5.322 5H36L33.555 20Z" fill="#393A41"/><path d="M13.116 10C11.713 10 10.646 11.243 10.646 12.725C10.646 14.065 11.521 14.999 12.712 14.999C14.115 14.999 15.174 13.721 15.174 12.239C15.182 10.89 14.307 10 13.116 10ZM12.801 13.738C12.263 13.738 11.889 13.315 11.889 12.662C11.889 11.939 12.352 11.252 13.021 11.252C13.557 11.252 13.932 11.693 13.932 12.346C13.94 13.077 13.47 13.738 12.8 13.738H12.801ZM21.56 10C20.158 10 19.099 11.243 19.099 12.725C19.099 14.065 19.974 14.999 21.165 14.999C22.568 14.999 23.628 13.721 23.628 12.239C23.636 10.89 22.76 10 21.562 10H21.56ZM21.253 13.738C20.716 13.738 20.341 13.315 20.341 12.662C20.341 11.939 20.804 11.252 21.474 11.252C22.009 11.252 22.385 11.693 22.385 12.346C22.385 13.077 21.922 13.738 21.252 13.738H21.253ZM27.759 11.578C27.759 10.678 27.178 10.106 26.119 10.106H24.634L23.98 14.893H25.23L25.436 13.385H25.495L26.155 14.893H27.589L26.671 13.217C27.355 12.935 27.758 12.327 27.758 11.579L27.759 11.578ZM25.759 12.373H25.576L25.715 11.366H25.884C26.274 11.366 26.479 11.508 26.479 11.816C26.479 12.179 26.186 12.373 25.759 12.373ZM9.212 12.019C8.735 11.727 8.631 11.657 8.631 11.498C8.631 11.305 8.821 11.208 9.079 11.208C9.381 11.208 9.837 11.251 10.285 11.762C10.393 11.362 10.572 10.985 10.814 10.652C10.184 10.221 9.594 10 9.058 10C7.992 10 7.375 10.687 7.375 11.516C7.375 12.231 7.822 12.601 8.352 12.928C8.83 13.218 8.947 13.315 8.947 13.492C8.947 13.686 8.749 13.792 8.484 13.792C8.028 13.792 7.498 13.448 7.183 13.095L7 14.426C7.417 14.804 7.954 15.008 8.507 15C9.61 15 10.206 14.329 10.206 13.473C10.206 12.768 9.824 12.389 9.213 12.019H9.212ZM18.475 12.203H17.005L17.122 11.366H18.694C18.894 10.875 19.207 10.443 19.606 10.106H17.033C16.46 10.106 15.975 10.573 15.893 11.208L15.394 14.902H16.644L16.85 13.394H18.335L18.445 12.574C18.452 12.442 18.46 12.327 18.475 12.204V12.203ZM27.787 10.107C28.125 10.415 28.331 10.847 28.375 11.367H29.419L28.942 14.893H30.191L30.668 11.366H31.83L31.999 10.106H27.787V10.107Z" fill="#EDEDED"/></svg>
